content/culture/Love.svg

<svg xmlns="http://www.w3.org/2000/svg" width="34" height="27" viewBox="0 0 34 27" fill="none">
  <path d="M28.6726 0H26.4629V2.15055H28.6726V0Z" fill="black"/>
  <path d="M28.6726 2.64844H26.4629V4.79899H28.6726V2.64844Z" fill="black"/>
  <path d="M28.6726 5.29297H26.4629V7.44352H28.6726V5.29297Z" fill="black"/>
  <path d="M28.6726 7.94141H26.4629V10.092H28.6726V7.94141Z" fill="black"/>
  <path d="M28.6726 10.5859H26.4629V12.7365H28.6726V10.5859Z" fill="black"/>
  <path d="M28.6726 13.2344H26.4629V15.3849H28.6726V13.2344Z" fill="black"/>
  <path d="M28.6726 15.9102H26.4629V18.0607H28.6726V15.9102Z" fill="black"/>
  <path d="M31.323 2.64844H29.1133V4.79899H31.323V2.64844Z" fill="black"/>
  <path d="M31.323 5.29297H29.1133V7.44352H31.323V5.29297Z" fill="black"/>
  <path d="M31.3228 7.94141H29.113V10.092H31.3228V7.94141Z" fill="black"/>
  <path d="M31.323 10.5859H29.1133V12.7365H31.323V10.5859Z" fill="black"/>
  <path d="M31.3228 13.2344H29.113V15.3849H31.3228V13.2344Z" fill="black"/>
  <path d="M33.9734 5.29297H31.7637V7.44352H33.9734V5.29297Z" fill="black"/>
  <path d="M33.9734 7.94141H31.7637V10.092H33.9734V7.94141Z" fill="black"/>
  <path d="M33.9734 10.5859H31.7637V12.7365H33.9734V10.5859Z" fill="black"/>
  <path d="M20.7156 2.64844H18.5059V4.79899H20.7156V2.64844Z" fill="black"/>
  <path d="M20.7156 5.29297H18.5059V7.44352H20.7156V5.29297Z" fill="black"/>
  <path d="M20.7156 7.94141H18.5059V10.092H20.7156V7.94141Z" fill="black"/>
  <path d="M20.7156 10.5859H18.5059V12.7365H20.7156V10.5859Z" fill="black"/>
  <path d="M20.7156 13.2344H18.5059V15.3849H20.7156V13.2344Z" fill="black"/>
  <path d="M20.7156 15.9102H18.5059V18.0607H20.7156V15.9102Z" fill="black"/>
  <path d="M20.7156 18.5547H18.5059V20.7052H20.7156V18.5547Z" fill="black"/>
  <path d="M20.7156 21.2031H18.5059V23.3537H20.7156V21.2031Z" fill="black"/>
  <path d="M23.3679 0H21.1582V2.15055H23.3679V0Z" fill="black"/>
  <path d="M23.3679 2.64844H21.1582V4.79899H23.3679V2.64844Z" fill="black"/>
  <path d="M23.3679 5.29297H21.1582V7.44352H23.3679V5.29297Z" fill="black"/>
  <path d="M23.3679 7.94141H21.1582V10.092H23.3679V7.94141Z" fill="black"/>
  <path d="M23.3679 10.5859H21.1582V12.7365H23.3679V10.5859Z" fill="black"/>
  <path d="M23.3679 13.2344H21.1582V15.3849H23.3679V13.2344Z" fill="black"/>
  <path d="M23.3679 15.9102H21.1582V18.0607H23.3679V15.9102Z" fill="black"/>
  <path d="M23.3679 18.5547H21.1582V20.7052H23.3679V18.5547Z" fill="black"/>
  <path d="M26.0203 0H23.8105V2.15055H26.0203V0Z" fill="black"/>
  <path d="M26.0203 2.64844H23.8105V4.79899H26.0203V2.64844Z" fill="black"/>
  <path d="M26.0203 5.29297H23.8105V7.44352H26.0203V5.29297Z" fill="black"/>
  <path d="M26.0203 7.94141H23.8105V10.092H26.0203V7.94141Z" fill="black"/>
  <path d="M26.0203 10.5859H23.8105V12.7365H26.0203V10.5859Z" fill="black"/>
  <path d="M26.0203 13.2344H23.8105V15.3849H26.0203V13.2344Z" fill="black"/>
  <path d="M26.0203 15.9102H23.8105V18.0607H26.0203V15.9102Z" fill="black"/>
  <path d="M12.7329 0H10.5232V2.15055H12.7329V0Z" fill="black"/>
  <path d="M12.7332 2.64844H10.5234V4.79899H12.7332V2.64844Z" fill="black"/>
  <path d="M12.7332 5.29297H10.5234V7.44352H12.7332V5.29297Z" fill="black"/>
  <path d="M12.7329 7.94141H10.5232V10.092H12.7329V7.94141Z" fill="black"/>
  <path d="M12.7332 10.5859H10.5234V12.7365H12.7332V10.5859Z" fill="black"/>
  <path d="M12.7329 13.2344H10.5232V15.3849H12.7329V13.2344Z" fill="black"/>
  <path d="M12.7332 15.9102H10.5234V18.0607H12.7332V15.9102Z" fill="black"/>
  <path d="M12.7329 18.5547H10.5232V20.7052H12.7329V18.5547Z" fill="black"/>
  <path d="M15.3836 2.64844H13.1738V4.79899H15.3836V2.64844Z" fill="black"/>
  <path d="M15.3836 5.29297H13.1738V7.44352H15.3836V5.29297Z" fill="black"/>
  <path d="M15.3836 7.94141H13.1738V10.092H15.3836V7.94141Z" fill="black"/>
  <path d="M15.3836 10.5859H13.1738V12.7365H15.3836V10.5859Z" fill="black"/>
  <path d="M15.3836 13.2344H13.1738V15.3849H15.3836V13.2344Z" fill="black"/>
  <path d="M15.3836 15.9102H13.1738V18.0607H15.3836V15.9102Z" fill="black"/>
  <path d="M15.3836 18.5547H13.1738V20.7052H15.3836V18.5547Z" fill="black"/>
  <path d="M15.3836 21.2031H13.1738V23.3537H15.3836V21.2031Z" fill="black"/>
  <path d="M18.0379 5.29297H15.8281V7.44352H18.0379V5.29297Z" fill="black"/>
  <path d="M18.0379 7.94141H15.8281V10.092H18.0379V7.94141Z" fill="black"/>
  <path d="M18.0379 10.5859H15.8281V12.7365H18.0379V10.5859Z" fill="black"/>
  <path d="M18.0379 13.2344H15.8281V15.3849H18.0379V13.2344Z" fill="black"/>
  <path d="M18.0379 15.9102H15.8281V18.0607H18.0379V15.9102Z" fill="black"/>
  <path d="M18.0379 18.5547H15.8281V20.7052H18.0379V18.5547Z" fill="black"/>
  <path d="M18.0379 21.2031H15.8281V23.3537H18.0379V21.2031Z" fill="black"/>
  <path d="M18.0379 23.8516H15.8281V26.0021H18.0379V23.8516Z" fill="black"/>
  <path d="M4.78006 2.64844H2.57031V4.79899H4.78006V2.64844Z" fill="black"/>
  <path d="M4.78006 5.29297H2.57031V7.44352H4.78006V5.29297Z" fill="black"/>
  <path d="M4.78006 7.94141H2.57031V10.092H4.78006V7.94141Z" fill="black"/>
  <path d="M4.78006 10.5859H2.57031V12.7365H4.78006V10.5859Z" fill="black"/>
  <path d="M4.78006 13.2344H2.57031V15.3849H4.78006V13.2344Z" fill="black"/>
  <path d="M7.43045 0H5.2207V2.15055H7.43045V0Z" fill="black"/>
  <path d="M7.43045 5.29297H5.2207V7.44352H7.43045V5.29297Z" fill="black"/>
  <path d="M7.43045 7.94141H5.2207V10.092H7.43045V7.94141Z" fill="black"/>
  <path d="M7.43045 10.5859H5.2207V12.7365H7.43045V10.5859Z" fill="black"/>
  <path d="M7.43045 13.2344H5.2207V15.3849H7.43045V13.2344Z" fill="black"/>
  <path d="M7.43045 15.9102H5.2207V18.0607H7.43045V15.9102Z" fill="black"/>
  <path d="M10.0828 0H7.87305V2.15055H10.0828V0Z" fill="black"/>
  <path d="M10.0828 2.64844H7.87305V4.79899H10.0828V2.64844Z" fill="black"/>
  <path d="M10.0828 5.29297H7.87305V7.44352H10.0828V5.29297Z" fill="black"/>
  <path d="M10.0828 7.94141H7.87305V10.092H10.0828V7.94141Z" fill="black"/>
  <path d="M10.0828 10.5859H7.87305V12.7365H10.0828V10.5859Z" fill="black"/>
  <path d="M10.0828 13.2344H7.87305V15.3849H10.0828V13.2344Z" fill="black"/>
  <path d="M10.0828 15.9102H7.87305V18.0607H10.0828V15.9102Z" fill="black"/>
  <path d="M2.20974 5.29297H0V7.44352H2.20974V5.29297Z" fill="black"/>
  <path d="M2.20974 7.94141H0V10.092H2.20974V7.94141Z" fill="black"/>
  <path d="M2.20974 10.5859H0V12.7365H2.20974V10.5859Z" fill="black"/>
</svg>

<?xml version="1.0" encoding="utf-8"?>
<!-- Generator: Adobe Illustrator 27.7.0, SVG Export Plug-In . SVG Version: 6.00 Build 0)  -->
<svg version="1.1" id="Layer_1" xmlns="http://www.w3.org/2000/svg" xmlns:xlink="http://www.w3.org/1999/xlink" x="0px" y="0px"
	 viewBox="0 0 34 27" style="enable-background:new 0 0 34 27;" xml:space="preserve">
<style type="text/css">
	.st0{fill:#FF3C00;}
</style>
<path class="st0" d="M28.7,0h-2.2v2.2h2.2V0z"/>
<path class="st0" d="M28.7,2.6h-2.2v2.2h2.2V2.6z"/>
<path class="st0" d="M28.7,5.3h-2.2v2.2h2.2V5.3z"/>
<path class="st0" d="M28.7,7.9h-2.2v2.2h2.2V7.9z"/>
<path class="st0" d="M28.7,10.6h-2.2v2.2h2.2V10.6z"/>
<path class="st0" d="M28.7,13.2h-2.2v2.2h2.2V13.2z"/>
<path class="st0" d="M28.7,15.9h-2.2v2.2h2.2V15.9z"/>
<path class="st0" d="M31.3,2.6h-2.2v2.2h2.2V2.6z"/>
<path class="st0" d="M31.3,5.3h-2.2v2.2h2.2V5.3z"/>
<path class="st0" d="M31.3,7.9h-2.2v2.2h2.2V7.9z"/>
<path class="st0" d="M31.3,10.6h-2.2v2.2h2.2V10.6z"/>
<path class="st0" d="M31.3,13.2h-2.2v2.2h2.2V13.2z"/>
<path class="st0" d="M34,5.3h-2.2v2.2H34V5.3z"/>
<path class="st0" d="M34,7.9h-2.2v2.2H34V7.9z"/>
<path class="st0" d="M34,10.6h-2.2v2.2H34V10.6z"/>
<path class="st0" d="M20.7,2.6h-2.2v2.2h2.2V2.6z"/>
<path class="st0" d="M20.7,5.3h-2.2v2.2h2.2V5.3z"/>
<path class="st0" d="M20.7,7.9h-2.2v2.2h2.2V7.9z"/>
<path class="st0" d="M20.7,10.6h-2.2v2.2h2.2V10.6z"/>
<path class="st0" d="M20.7,13.2h-2.2v2.2h2.2V13.2z"/>
<path class="st0" d="M20.7,15.9h-2.2v2.2h2.2V15.9z"/>
<path class="st0" d="M20.7,18.6h-2.2v2.2h2.2V18.6z"/>
<path class="st0" d="M20.7,21.2h-2.2v2.2h2.2V21.2z"/>
<path class="st0" d="M23.4,0h-2.2v2.2h2.2V0z"/>
<path class="st0" d="M23.4,2.6h-2.2v2.2h2.2V2.6z"/>
<path class="st0" d="M23.4,5.3h-2.2v2.2h2.2V5.3z"/>
<path class="st0" d="M23.4,7.9h-2.2v2.2h2.2V7.9z"/>
<path class="st0" d="M23.4,10.6h-2.2v2.2h2.2V10.6z"/>
<path class="st0" d="M23.4,13.2h-2.2v2.2h2.2V13.2z"/>
<path class="st0" d="M23.4,15.9h-2.2v2.2h2.2V15.9z"/>
<path class="st0" d="M23.4,18.6h-2.2v2.2h2.2V18.6z"/>
<path class="st0" d="M26,0h-2.2v2.2H26V0z"/>
<path class="st0" d="M26,2.6h-2.2v2.2H26V2.6z"/>
<path class="st0" d="M26,5.3h-2.2v2.2H26V5.3z"/>
<path class="st0" d="M26,7.9h-2.2v2.2H26V7.9z"/>
<path class="st0" d="M26,10.6h-2.2v2.2H26V10.6z"/>
<path class="st0" d="M26,13.2h-2.2v2.2H26V13.2z"/>
<path class="st0" d="M26,15.9h-2.2v2.2H26V15.9z"/>
<path class="st0" d="M12.7,0h-2.2v2.2h2.2V0z"/>
<path class="st0" d="M12.7,2.6h-2.2v2.2h2.2V2.6z"/>
<path class="st0" d="M12.7,5.3h-2.2v2.2h2.2V5.3z"/>
<path class="st0" d="M12.7,7.9h-2.2v2.2h2.2V7.9z"/>
<path class="st0" d="M12.7,10.6h-2.2v2.2h2.2V10.6z"/>
<path class="st0" d="M12.7,13.2h-2.2v2.2h2.2V13.2z"/>
<path class="st0" d="M12.7,15.9h-2.2v2.2h2.2V15.9z"/>
<path class="st0" d="M12.7,18.6h-2.2v2.2h2.2V18.6z"/>
<path class="st0" d="M15.4,2.6h-2.2v2.2h2.2V2.6z"/>
<path class="st0" d="M15.4,5.3h-2.2v2.2h2.2V5.3z"/>
<path class="st0" d="M15.4,7.9h-2.2v2.2h2.2V7.9z"/>
<path class="st0" d="M15.4,10.6h-2.2v2.2h2.2V10.6z"/>
<path class="st0" d="M15.4,13.2h-2.2v2.2h2.2V13.2z"/>
<path class="st0" d="M15.4,15.9h-2.2v2.2h2.2V15.9z"/>
<path class="st0" d="M15.4,18.6h-2.2v2.2h2.2V18.6z"/>
<path class="st0" d="M15.4,21.2h-2.2v2.2h2.2V21.2z"/>
<path class="st0" d="M18,5.3h-2.2v2.2H18V5.3z"/>
<path class="st0" d="M18,7.9h-2.2v2.2H18V7.9z"/>
<path class="st0" d="M18,10.6h-2.2v2.2H18V10.6z"/>
<path class="st0" d="M18,13.2h-2.2v2.2H18V13.2z"/>
<path class="st0" d="M18,15.9h-2.2v2.2H18V15.9z"/>
<path class="st0" d="M18,18.6h-2.2v2.2H18V18.6z"/>
<path class="st0" d="M18,21.2h-2.2v2.2H18V21.2z"/>
<path class="st0" d="M18,23.9h-2.2V26H18V23.9z"/>
<path class="st0" d="M4.8,2.6H2.6v2.2h2.2V2.6z"/>
<path class="st0" d="M4.8,5.3H2.6v2.2h2.2V5.3z"/>
<path class="st0" d="M4.8,7.9H2.6v2.2h2.2V7.9z"/>
<path class="st0" d="M4.8,10.6H2.6v2.2h2.2V10.6z"/>
<path class="st0" d="M4.8,13.2H2.6v2.2h2.2V13.2z"/>
<path class="st0" d="M7.4,0H5.2v2.2h2.2V0z"/>
<path class="st0" d="M7.4,5.3H5.2v2.2h2.2V5.3z"/>
<path class="st0" d="M7.4,7.9H5.2v2.2h2.2V7.9z"/>
<path class="st0" d="M7.4,10.6H5.2v2.2h2.2V10.6z"/>
<path class="st0" d="M7.4,13.2H5.2v2.2h2.2V13.2z"/>
<path class="st0" d="M7.4,15.9H5.2v2.2h2.2V15.9z"/>
<path class="st0" d="M10.1,0H7.9v2.2h2.2V0z"/>
<path class="st0" d="M10.1,2.6H7.9v2.2h2.2V2.6z"/>
<path class="st0" d="M10.1,5.3H7.9v2.2h2.2V5.3z"/>
<path class="st0" d="M10.1,7.9H7.9v2.2h2.2V7.9z"/>
<path class="st0" d="M10.1,10.6H7.9v2.2h2.2V10.6z"/>
<path class="st0" d="M10.1,13.2H7.9v2.2h2.2V13.2z"/>
<path class="st0" d="M10.1,15.9H7.9v2.2h2.2V15.9z"/>
<path class="st0" d="M2.2,5.3H0v2.2h2.2V5.3z"/>
<path class="st0" d="M2.2,7.9H0v2.2h2.2V7.9z"/>
<path class="st0" d="M2.2,10.6H0v2.2h2.2V10.6z"/>
</svg>
